X:1
T:Marsden, 77.77 D
T:Marsden, 77.77 D
T:George Frederick Handel, 1746
T:Public Domain Courtesy of the Cyber Hymnal™
C:George Frederick Handel, 1746
Z:Public Domain
Z:Courtesy of the Cyber Hymnal™
%%score ( 1 2 ) ( 3 4 )
L:1/8
Q:1/4=118
M:2/2
K:F
V:1 treble 
V:2 treble 
V:3 bass 
V:4 bass 
V:1
|: [Ac]4 ([FA]3 [GB]) | [Ac]4 [CF]4 | ([EG][FA][GB][Ac] [GB]2) [FA]2 | [EG]8 | %4
 ([Ac][GB][Ac][Bd] [Ac]2) [Ac]2 | [Af]4 [Ac]4 | ([GB]2 A2 G2) [EG]2 | F8 :| %8
 ([FA][EG][FA][GB] [FA]2) [FA]2 | [EG]4 [DF]4 | ([GB]2 [FA]2 [EG]2) [DF]2 | [^CE]8 | %12
 ([DF][^CE][DF][EG] [DF]2) [DF]2 | [Fd]4 [F=B]4 | ([Ec]2 [Fd][Ec] [D=B]2) [FB]2 | [Ec]8 | %16
 [Ac]4 ([FA]3 [GB]) | [Ac]4 [CF]4 | ([EG][FA][GB][Ac] [GB]2) [FA]2 | [EG]8 | %20
 ([Ac][GB][Ac][Bd] [Ac]2) [Ac]2 | [cf]4 [Ac]4 | ([GB]2 A2 G2) [EG]2 | F8 |] %24
V:2
|: x8 | x8 | x8 | x8 | x8 | x8 | x2 F4 x2 | F8 :| x8 | x8 | x8 | x8 | x8 | x8 | x8 | x8 | x8 | x8 | %18
 x8 | x8 | x8 | x8 | x2 F4 x2 | F8 |] %24
V:3
|: [F,C]4 C4 | [F,C]4 [A,C]4 | C6 [F,C]2 | [C,C]8 | [F,C]6 [F,C]2 | [A,C]4 [F,C]4 | C6 [C,B,]2 | %7
 [F,A,]8 :| [F,C]6 [F,C]2 | [C,B,]4 [D,A,]4 | ([E,^C]2 [F,D]2 [G,B,]2) [D,A,]2 | A,8 | %12
 [D,A,]6 [A,C]2 | B,4 [G,D]4 | ([A,C]2 [F,A,]2 [G,D]2) [A,,D]2 | [C,E]8 | [F,A,]4 ([A,C]3 [G,B,]) | %17
 [F,A,]4 [A,C]4 | (B,2 z F, [E,C]2) [F,C]2 | [C,C]8 | [F,C]6 [F,C]2 | [A,C]4 [F,A,]4 | %22
 ([G,B,]2 C4) [C,B,]2 | [F,A,]8 |] %24
V:4
|: x4 (A,3 G,) | x8 | (G,3 F, E,2) x2 | x8 | x8 | x8 | (G,2 A,B, C2) x2 | x8 :| x8 | x8 | x8 | %11
 A,8 | x8 | B,4 x4 | x8 | x8 | x8 | x8 | G,3 G,2 x3 | x8 | x8 | x8 | x2 (A,B, C2) x2 | x8 |] %24

